_inc/logos/freejdme.svg

<?xml version="1.0" encoding="UTF-8" standalone="no"?>
<!-- Created by ERK -->

<svg
   version="1.1"
   viewBox="0 0 1600 800"
   id="svg12"
   sodipodi:docname="freejdme.svg"
   width="1600"
   height="800"
   inkscape:version="1.4 (86a8ad7, 2024-10-11)"
   xmlns:inkscape="http://www.inkscape.org/namespaces/inkscape"
   xmlns:sodipodi="http://sodipodi.sourceforge.net/DTD/sodipodi-0.dtd"
   xmlns="http://www.w3.org/2000/svg"
   xmlns:svg="http://www.w3.org/2000/svg">
  <defs
     id="defs12" />
  <sodipodi:namedview
     id="namedview12"
     pagecolor="#ffffff"
     bordercolor="#000000"
     borderopacity="0.25"
     inkscape:showpageshadow="2"
     inkscape:pageopacity="0.0"
     inkscape:pagecheckerboard="true"
     inkscape:deskcolor="#d1d1d1"
     inkscape:zoom="0.64201389"
     inkscape:cx="889.38886"
     inkscape:cy="471.17361"
     inkscape:window-width="3840"
     inkscape:window-height="2066"
     inkscape:window-x="-11"
     inkscape:window-y="-11"
     inkscape:window-maximized="1"
     inkscape:current-layer="svg12" />
  <g
     id="g13"
     inkscape:label="Logo"
     transform="translate(131.5,39.766731)">
    <g
       fill="#ed1e24"
       id="g6"
       style="display:inline"
       inkscape:label="Java">
      <path
         d="M 341.23,45.11 C 343.59,30.9 342.45,15.32 340.22,0.8 q -0.08,-0.51 0.36,-0.24 c 4.77,2.85 7.47,9.59 8.78,14.21 q 8.08,28.5 3.91,57.38 c -4.25,29.32 -18.37,51.02 -39.43,70.95 q -27.93,26.43 -55.23,53.51 -19.32,19.17 -34.76,39.73 c -19.86,26.44 -18.43,50.11 -5.14,78.85 12.2,26.37 27.57,50.06 44.24,73.77 a 0.18,0.17 65.9 0 1 -0.1,0.27 l -0.28,0.08 a 0.18,0.16 -30 0 1 -0.17,-0.04 q -29.54,-29.2 -55.78,-61.4 -15.79,-19.38 -27.52,-39.7 C 155.77,247.77 190.79,213.57 218,189 q 29.44,-26.59 47.19,-40.81 22.02,-17.63 31.18,-25.57 c 22.88,-19.82 39.84,-47.37 44.86,-77.51 z"
         id="path1"
         inkscape:label="Steam1" />
      <path
         d="m 286.72,323.79 c -38.88,-55.24 -11.7,-102.55 38.12,-134.75 30.43,-19.67 64.68,-32.98 99.3,-43.53 a 0.55,0.55 0 0 1 0.44,0.99 c -34.65,21.24 -70.59,44.61 -98.31,75 -11.82,12.96 -20.95,28.99 -16.46,46.68 3.17,12.52 13.19,25.44 20.54,36.93 8,12.52 13.98,23.5 16.92,36.39 7.35,32.25 -30.56,61.82 -54.18,76.27 a 0.46,0.46 0 0 1 -0.62,-0.66 c 8.49,-11.59 20.9,-26.39 21.28,-41.43 0.25,-10.41 -4.81,-20.22 -10.65,-28.56 q -8.18,-11.67 -16.38,-23.33 z"
         id="path2"
         inkscape:label="Steam2" />
      <path
         d="m 632.87,665.94 q -8.99,-10.66 -18.16,-21.15 -1.77,-2.02 -2.97,-4.34 a 0.45,0.44 65.5 0 1 0.23,-0.62 c 36.01,-14.4 47.39,-52.88 47.38,-88.4 q -0.04,-134.21 -0.12,-269.56 a 0.55,0.54 89.5 0 1 0.53,-0.55 c 15.46,-0.28 31.63,-1.11 47.11,0.3 a 0.55,0.54 2.9 0 1 0.49,0.54 c 0.85,86.17 0.01,168.99 0.15,266.59 0.08,49.56 -18.81,98.22 -69.01,116.25 q -2.36,0.85 -4.82,1.24 a 0.88,0.87 65.3 0 1 -0.81,-0.3 z"
         id="path3"
         inkscape:label="J" />
      <path
         d="m 871.46,449.44 c 1.17,-22.38 1.42,-52.49 -27.41,-57.77 -17.91,-3.27 -36.44,-1.42 -53.93,2.67 -9.09,2.13 -19.93,5.99 -29.82,9.11 a 0.5,0.5 0 0 1 -0.63,-0.35 l -6.65,-26.33 a 0.73,0.71 -24.7 0 1 0.3,-0.78 q 4.68,-3.14 11.93,-5.74 31.1,-11.16 64.07,-13.52 c 44.43,-3.2 87.56,14.94 87.77,66.59 q 0.31,75.71 0.25,151.43 0,4.96 -0.22,9.92 a 0.61,0.61 0 0 1 -0.61,0.58 h -33.77 a 0.56,0.55 84.2 0 1 -0.54,-0.45 l -4.38,-22.36 a 0.3,0.29 -27.3 0 0 -0.49,-0.15 c -16.08,14.94 -39.49,27.27 -61.75,28.31 -22.07,1.03 -49.84,-4.46 -63.08,-23.23 -8.37,-11.87 -11.64,-28.54 -11.31,-43.21 1.05,-45.99 44.56,-67.5 84.4,-70.53 q 29.85,-2.27 45.35,-3.65 a 0.57,0.56 -1.1 0 0 0.52,-0.54 z m -65.47,103.47 c 20.01,9.91 46.41,-3.79 62.21,-16.46 2.74,-2.2 4.05,-4.26 4.06,-8.02 q 0.06,-24.17 -0.34,-48.09 a 0.62,0.62 0 0 0 -0.61,-0.61 q -16.06,-0.15 -31.99,1.29 c -14.06,1.27 -31.82,2.87 -42.2,13.84 -16.03,16.96 -12.99,47.23 8.87,58.05 z"
         id="path4"
         inkscape:label="a" />
      <path
         d="m 1047.54,538.09 a 0.39,0.39 0 0 0 0.74,0.06 q 2.56,-6.17 4.6,-12.44 14.71,-45.23 26.8,-91.23 7.47,-28.38 11.1,-57.5 1.25,-10.05 1.29,-12.73 0.04,-3.04 2.93,-3.05 22.6,-0.03 44.84,0.14 a 0.72,0.71 -85.2 0 1 0.7,0.84 c -2.44,14.33 -5.04,25.41 -9.01,42.58 q -10.37,44.8 -23.77,88.79 c -9.49,31.16 -20.28,61.12 -35.07,89.93 -0.52,1.02 -1.89,2.26 -3.08,2.26 q -26.94,0.02 -53.98,0.01 a 1.02,1.01 81.5 0 1 -0.97,-0.72 C 991.89,512.31 968.27,439.68 946.35,366.59 q -0.72,-2.39 -1,-4.84 a 0.38,0.37 87.2 0 1 0.37,-0.42 l 48.33,0.24 a 0.69,0.67 77.9 0 1 0.62,0.41 q 1.28,2.95 1.85,4.76 c 18,56.86 36.36,113.52 51.02,171.35 z"
         id="path6"
         inkscape:label="v" />
      <path
         d="m 1337,424.81 v 160.25 l -34.65,0.08 a 0.57,0.56 83.9 0 1 -0.56,-0.46 l -4.14,-22.06 a 0.52,0.52 0 0 0 -0.86,-0.28 c -26.88,25.55 -62.16,34.72 -98.22,23.35 -24.78,-7.82 -34.84,-27.01 -37.33,-51.44 -1.97,-19.31 2.89,-37.9 16.46,-52.06 27.81,-29.01 71.5,-29.94 108.47,-31.35 1.56,-0.06 3.23,-0.51 4.75,-0.86 a 0.9,0.89 -87 0 0 0.65,-0.59 q 1.16,-3.52 0.95,-7.89 c -0.97,-20.29 -3.15,-42.67 -26.21,-49.13 -27.95,-7.82 -59.32,2.31 -85.84,10.95 a 0.79,0.78 -18.4 0 1 -0.99,-0.49 q -3.97,-11.65 -6.48,-23.83 -0.3,-1.48 -0.18,-2.55 a 1.1,1.09 76.8 0 1 0.49,-0.79 q 3.94,-2.53 6.74,-3.6 35.36,-13.59 72.52,-15.48 c 45.13,-2.3 84.1,17.35 84.43,68.23 z m -129.24,104.42 c 5.41,24.69 27.84,31.75 50.15,24.11 13.04,-4.47 22.65,-11.56 33.43,-19.79 a 1,0.98 -18.9 0 0 0.4,-0.79 l 0.03,-52.24 a 0.75,0.75 0 0 0 -0.74,-0.76 c -21.4,-0.13 -61.5,-1.09 -76.63,17.46 -7.1,8.71 -8.98,21.31 -6.64,32.01 z"
         id="path5"
         inkscape:label="a"
         style="display:inline" />
    </g>
    <g
       fill="#3c8ace"
       id="g12"
       inkscape:label="Cup">
      <path
         d="m 438.29,397.08 c 4.11,-4.1 13.9,-7.04 19.66,-8.21 26.38,-5.34 54.4,4.11 68.44,27.72 10.74,18.07 5.27,40.01 -6.89,55.67 -16.6,21.38 -39.82,34.07 -64.01,44.77 q -16.32,7.21 -33.44,11.46 a 0.52,0.52 0 0 1 -0.38,-0.96 c 26.88,-15.04 57.98,-37.62 73.66,-64.44 8.91,-15.25 11.83,-37.63 -0.21,-51.93 -11.72,-13.92 -34.17,-17.27 -51.28,-13.89 q -2.71,0.54 -5.41,0.23 -0.51,-0.06 -0.14,-0.42 z"
         id="path7"
         inkscape:label="Handle" />
      <path
         d="m 110.96,428.46 c 6.16,4.18 15.08,6.04 22.05,7.03 q 19,2.73 39.81,3.4 c 81.59,2.64 163.66,-4.76 244.12,-18.06 q 0.52,-0.09 0.15,0.28 -1.79,1.76 -5.76,4.23 c -12.44,7.73 -20.97,14.15 -32.42,15.71 q -12.29,1.68 -24.58,3.39 c -88.03,12.25 -177.62,17.28 -265.86,3.53 -8.85,-1.37 -20.06,-3.48 -27.51,-8.66 -11.73,-8.17 13.7,-18.94 19.08,-21.21 q 36.22,-15.3 76.14,-21.97 11.51,-1.92 21.87,-1.35 0.5,0.03 0.02,0.17 c -10.55,3.17 -71.31,17.01 -67.64,32.74 a 1.32,1.29 -80.2 0 0 0.53,0.77 z"
         id="path8" />
      <path
         d="m 389,512.08 a 0.43,0.42 6.8 0 1 0.28,0.35 c 0.14,1.34 -24.48,7.86 -27,8.44 -25.69,5.9 -50.74,10.75 -76.84,12.14 -39.45,2.1 -79.77,1.23 -118.95,-4.18 q -19.69,-2.72 -35.94,-8.57 c -15.3,-5.5 -21.21,-18.41 -6.98,-30.17 q 11.72,-9.68 26.93,-11.81 a 0.25,0.24 -72.6 0 1 0.21,0.41 c -2.31,2.55 -5.14,5.52 -6.29,8.55 -13.15,34.69 158.95,15.67 175.33,13.78 q 21.9,-2.52 39.75,-5.78 c 1.08,-0.19 3.15,0.84 4.09,1.73 q 10.82,10.28 25.41,15.11 z"
         id="path9"
         inkscape:label="Cup2" />
      <path
         d="m 377.63,589.94 q -7.58,4.3 -16.08,6.31 c -20.52,4.88 -40.98,10.99 -61.96,13.66 -42.09,5.35 -85.9,4.39 -127.33,-5.68 -10.76,-2.61 -43.71,-13.92 -33.94,-30.92 5.34,-9.28 18.38,-14.93 28.42,-16.9 q 0.5,-0.09 0.28,0.37 -0.61,1.27 -1.4,2.42 c -11.18,16.26 23.31,18.69 30.75,19.05 q 37.01,1.81 79.88,-0.07 33.39,-1.47 62.5,-8.39 c 0.55,-0.13 1.97,0.16 2.56,0.54 q 17.29,11.22 36.29,19.17 0.47,0.19 0.03,0.44 z"
         id="path10"
         inkscape:label="Cup3" />
      <path
         d="m 0,650.19 v -2.25 C 3.8,634.83 20.6,626.82 32.71,622.6 q 35.08,-12.23 72.29,-13.24 4.25,-0.11 7.49,0.31 a 0.47,0.47 0 0 1 0,0.93 c -13.99,1.59 -61.65,9.1 -67.02,24.09 -4.25,11.86 31.27,17.16 38.56,18.42 q 57.52,9.88 115.91,10.28 c 34.85,0.24 284.23,-1.93 292.13,-36.95 q 1.2,-5.33 -2.42,-10.12 a 0.25,0.25 0 0 1 0.3,-0.38 c 7.45,3.62 13.66,11.96 5.79,19.31 -19.04,17.78 -51.51,26.5 -76.28,31.58 q -40.4,8.3 -81.54,11.45 -80.77,6.2 -161.74,3.83 C 136.84,680.96 97.42,679.3 58.42,673.7 Q 42.12,671.35 26.2,667.22 C 17.21,664.89 2.28,660.08 0,650.19 Z"
         id="path11"
         inkscape:label="Cup4" />
      <path
         d="m 277.44,720 h -19.25 q -54.83,-0.88 -108.98,-9.5 -24.57,-3.92 -48.23,-11.71 a 0.33,0.33 0 0 1 0.13,-0.64 c 88.09,7.79 175.23,12.49 262.38,4.8 39.5,-3.48 79.61,-10.07 117.11,-23.25 q 27.53,-9.68 50.71,-27.48 a 0.32,0.31 77.3 0 1 0.5,0.32 c -3.01,14.19 -23.12,26.77 -35.15,32.61 -39.63,19.23 -84.51,25.5 -128.05,29.69 q -45.47,4.38 -91.17,5.16 z"
         id="path12"
         inkscape:label="Cup5" />
    </g>
  </g>
</svg>

<?xml version="1.0" encoding="UTF-8" standalone="no"?>
<!DOCTYPE svg PUBLIC "-//W3C//DTD SVG 1.1//EN" "http://www.w3.org/Graphics/SVG/1.1/DTD/svg11.dtd">
<svg xmlns="http://www.w3.org/2000/svg" version="1.1" viewBox="0 0 1337 720">
<g fill="#ed1e24">
<path d="
  M 341.23 45.11
  C 343.59 30.90 342.45 15.32 340.22 0.80
  Q 340.14 0.29 340.58 0.56
  C 345.35 3.41 348.05 10.15 349.36 14.77
  Q 357.44 43.27 353.27 72.15
  C 349.02 101.47 334.90 123.17 313.84 143.10
  Q 285.91 169.53 258.61 196.61
  Q 239.29 215.78 223.85 236.34
  C 203.99 262.78 205.42 286.45 218.71 315.19
  C 230.91 341.56 246.28 365.25 262.95 388.96
  A 0.18 0.17 65.9 0 1 262.85 389.23
  L 262.57 389.31
  A 0.18 0.16 -30.0 0 1 262.40 389.27
  Q 232.86 360.07 206.62 327.87
  Q 190.83 308.49 179.10 288.17
  C 155.77 247.77 190.79 213.57 218.00 189.00
  Q 247.44 162.41 265.19 148.19
  Q 287.21 130.56 296.37 122.62
  C 319.25 102.80 336.21 75.25 341.23 45.11
  Z"
/>
<path d="
  M 286.72 323.79
  C 247.84 268.55 275.02 221.24 324.84 189.04
  C 355.27 169.37 389.52 156.06 424.14 145.51
  A 0.55 0.55 0.0 0 1 424.58 146.50
  C 389.93 167.74 353.99 191.11 326.27 221.50
  C 314.45 234.46 305.32 250.49 309.81 268.18
  C 312.98 280.70 323.00 293.62 330.35 305.11
  C 338.35 317.63 344.33 328.61 347.27 341.50
  C 354.62 373.75 316.71 403.32 293.09 417.77
  A 0.46 0.46 0.0 0 1 292.47 417.11
  C 300.96 405.52 313.37 390.72 313.75 375.68
  C 314.00 365.27 308.94 355.46 303.10 347.12
  Q 294.92 335.45 286.72 323.79
  Z"
/>
<path d="
  M 632.87 665.94
  Q 623.88 655.28 614.71 644.79
  Q 612.94 642.77 611.74 640.45
  A 0.45 0.44 65.5 0 1 611.97 639.83
  C 647.98 625.43 659.36 586.95 659.35 551.43
  Q 659.31 417.22 659.23 281.87
  A 0.55 0.54 89.5 0 1 659.76 281.32
  C 675.22 281.04 691.39 280.21 706.87 281.62
  A 0.55 0.54 2.9 0 1 707.36 282.16
  C 708.21 368.33 707.37 451.15 707.51 548.75
  C 707.59 598.31 688.70 646.97 638.50 665.00
  Q 636.14 665.85 633.68 666.24
  A 0.88 0.87 65.3 0 1 632.87 665.94
  Z"
/>
<path d="
  M 871.46 449.44
  C 872.63 427.06 872.88 396.95 844.05 391.67
  C 826.14 388.40 807.61 390.25 790.12 394.34
  C 781.03 396.47 770.19 400.33 760.30 403.45
  A 0.50 0.50 0.0 0 1 759.67 403.10
  L 753.02 376.77
  A 0.73 0.71 -24.7 0 1 753.32 375.99
  Q 758.00 372.85 765.25 370.25
  Q 796.35 359.09 829.32 356.73
  C 873.75 353.53 916.88 371.67 917.09 423.32
  Q 917.40 499.03 917.34 574.75
  Q 917.34 579.71 917.12 584.67
  A 0.61 0.61 0.0 0 1 916.51 585.25
  L 882.74 585.25
  A 0.56 0.55 84.2 0 1 882.20 584.80
  L 877.82 562.44
  A 0.30 0.29 -27.3 0 0 877.33 562.29
  C 861.25 577.23 837.84 589.56 815.58 590.60
  C 793.51 591.63 765.74 586.14 752.50 567.37
  C 744.13 555.50 740.86 538.83 741.19 524.16
  C 742.24 478.17 785.75 456.66 825.59 453.63
  Q 855.44 451.36 870.94 449.98
  A 0.57 0.56 -1.1 0 0 871.46 449.44
  Z
  M 805.99 552.91
  C 826.00 562.82 852.40 549.12 868.20 536.45
  C 870.94 534.25 872.25 532.19 872.26 528.43
  Q 872.32 504.26 871.92 480.34
  A 0.62 0.62 0.0 0 0 871.31 479.73
  Q 855.25 479.58 839.32 481.02
  C 825.26 482.29 807.50 483.89 797.12 494.86
  C 781.09 511.82 784.13 542.09 805.99 552.91
  Z"
/>
<path d="
  M 1337.00 424.81
  L 1337.00 585.06
  L 1302.35 585.14
  A 0.57 0.56 83.9 0 1 1301.79 584.68
  L 1297.65 562.62
  A 0.52 0.52 0.0 0 0 1296.79 562.34
  C 1269.91 587.89 1234.63 597.06 1198.57 585.69
  C 1173.79 577.87 1163.73 558.68 1161.24 534.25
  C 1159.27 514.94 1164.13 496.35 1177.70 482.19
  C 1205.51 453.18 1249.20 452.25 1286.17 450.84
  C 1287.73 450.78 1289.40 450.33 1290.92 449.98
  A 0.90 0.89 -87.0 0 0 1291.57 449.39
  Q 1292.73 445.87 1292.52 441.50
  C 1291.55 421.21 1289.37 398.83 1266.31 392.37
  C 1238.36 384.55 1206.99 394.68 1180.47 403.32
  A 0.79 0.78 -18.4 0 1 1179.48 402.83
  Q 1175.51 391.18 1173.00 379.00
  Q 1172.70 377.52 1172.82 376.45
  A 1.10 1.09 76.8 0 1 1173.31 375.66
  Q 1177.25 373.13 1180.05 372.06
  Q 1215.41 358.47 1252.57 356.58
  C 1297.70 354.28 1336.67 373.93 1337.00 424.81
  Z
  M 1207.76 529.23
  C 1213.17 553.92 1235.60 560.98 1257.91 553.34
  C 1270.95 548.87 1280.56 541.78 1291.34 533.55
  A 1.00 0.98 -18.9 0 0 1291.74 532.76
  L 1291.77 480.52
  A 0.75 0.75 0.0 0 0 1291.03 479.76
  C 1269.63 479.63 1229.53 478.67 1214.40 497.22
  C 1207.30 505.93 1205.42 518.53 1207.76 529.23
  Z"
/>
<path d="
  M 1047.54 538.09
  A 0.39 0.39 0.0 0 0 1048.28 538.15
  Q 1050.84 531.98 1052.88 525.71
  Q 1067.59 480.48 1079.68 434.48
  Q 1087.15 406.10 1090.78 376.98
  Q 1092.03 366.93 1092.07 364.25
  Q 1092.11 361.21 1095.00 361.20
  Q 1117.60 361.17 1139.84 361.34
  A 0.72 0.71 -85.2 0 1 1140.54 362.18
  C 1138.10 376.51 1135.50 387.59 1131.53 404.76
  Q 1121.16 449.56 1107.76 493.55
  C 1098.27 524.71 1087.48 554.67 1072.69 583.48
  C 1072.17 584.50 1070.80 585.74 1069.61 585.74
  Q 1042.67 585.76 1015.63 585.75
  A 1.02 1.01 81.5 0 1 1014.66 585.03
  C 991.89 512.31 968.27 439.68 946.35 366.59
  Q 945.63 364.20 945.35 361.75
  A 0.38 0.37 87.2 0 1 945.72 361.33
  L 994.05 361.57
  A 0.69 0.67 77.9 0 1 994.67 361.98
  Q 995.95 364.93 996.52 366.74
  C 1014.52 423.60 1032.88 480.26 1047.54 538.09
  Z"
/>
</g>
<g fill="#3c8ace">
<path d="
  M 438.29 397.08
  C 442.40 392.98 452.19 390.04 457.95 388.87
  C 484.33 383.53 512.35 392.98 526.39 416.59
  C 537.13 434.66 531.66 456.60 519.50 472.26
  C 502.90 493.64 479.68 506.33 455.49 517.03
  Q 439.17 524.24 422.05 528.49
  A 0.52 0.52 0.0 0 1 421.67 527.53
  C 448.55 512.49 479.65 489.91 495.33 463.09
  C 504.24 447.84 507.16 425.46 495.12 411.16
  C 483.40 397.24 460.95 393.89 443.84 397.27
  Q 441.13 397.81 438.43 397.50
  Q 437.92 397.44 438.29 397.08
  Z"
/>
<path d="
  M 110.96 428.46
  C 117.12 432.64 126.04 434.50 133.01 435.49
  Q 152.01 438.22 172.82 438.89
  C 254.41 441.53 336.48 434.13 416.94 420.83
  Q 417.46 420.74 417.09 421.11
  Q 415.30 422.87 411.33 425.34
  C 398.89 433.07 390.36 439.49 378.91 441.05
  Q 366.62 442.73 354.33 444.44
  C 266.30 456.69 176.71 461.72 88.47 447.97
  C 79.62 446.60 68.41 444.49 60.96 439.31
  C 49.23 431.14 74.66 420.37 80.04 418.10
  Q 116.26 402.80 156.18 396.13
  Q 167.69 394.21 178.05 394.78
  Q 178.55 394.81 178.07 394.95
  C 167.52 398.12 106.76 411.96 110.43 427.69
  A 1.32 1.29 -80.2 0 0 110.96 428.46
  Z"
/>
<path d="
  M 389.00 512.08
  A 0.43 0.42 6.8 0 1 389.28 512.43
  C 389.42 513.77 364.80 520.29 362.28 520.87
  C 336.59 526.77 311.54 531.62 285.44 533.01
  C 245.99 535.11 205.67 534.24 166.49 528.83
  Q 146.80 526.11 130.55 520.26
  C 115.25 514.76 109.34 501.85 123.57 490.09
  Q 135.29 480.41 150.50 478.28
  A 0.25 0.24 -72.6 0 1 150.71 478.69
  C 148.40 481.24 145.57 484.21 144.42 487.24
  C 131.27 521.93 303.37 502.91 319.75 501.02
  Q 341.65 498.50 359.50 495.24
  C 360.58 495.05 362.65 496.08 363.59 496.97
  Q 374.41 507.25 389.00 512.08
  Z"
/>
<path d="
  M 377.63 589.94
  Q 370.05 594.24 361.55 596.25
  C 341.03 601.13 320.57 607.24 299.59 609.91
  C 257.50 615.26 213.69 614.30 172.26 604.23
  C 161.50 601.62 128.55 590.31 138.32 573.31
  C 143.66 564.03 156.70 558.38 166.74 556.41
  Q 167.24 556.32 167.02 556.78
  Q 166.41 558.05 165.62 559.20
  C 154.44 575.46 188.93 577.89 196.37 578.25
  Q 233.38 580.06 276.25 578.18
  Q 309.64 576.71 338.75 569.79
  C 339.30 569.66 340.72 569.95 341.31 570.33
  Q 358.60 581.55 377.60 589.50
  Q 378.07 589.69 377.63 589.94
  Z"
/>
<path d="
  M 0.00 650.19
  L 0.00 647.94
  C 3.80 634.83 20.60 626.82 32.71 622.60
  Q 67.79 610.37 105.00 609.36
  Q 109.25 609.25 112.49 609.67
  A 0.47 0.47 0.0 0 1 112.49 610.60
  C 98.50 612.19 50.84 619.70 45.47 634.69
  C 41.22 646.55 76.74 651.85 84.03 653.11
  Q 141.55 662.99 199.94 663.39
  C 234.79 663.63 484.17 661.46 492.07 626.44
  Q 493.27 621.11 489.65 616.32
  A 0.25 0.25 0.0 0 1 489.95 615.94
  C 497.40 619.56 503.61 627.90 495.74 635.25
  C 476.70 653.03 444.23 661.75 419.46 666.83
  Q 379.06 675.13 337.92 678.28
  Q 257.15 684.48 176.18 682.11
  C 136.84 680.96 97.42 679.30 58.42 673.70
  Q 42.12 671.35 26.20 667.22
  C 17.21 664.89 2.28 660.08 0.00 650.19
  Z"
/>
<path d="
  M 277.44 720.00
  L 258.19 720.00
  Q 203.36 719.12 149.21 710.50
  Q 124.64 706.58 100.98 698.79
  A 0.33 0.33 0.0 0 1 101.11 698.15
  C 189.20 705.94 276.34 710.64 363.49 702.95
  C 402.99 699.47 443.10 692.88 480.60 679.70
  Q 508.13 670.02 531.31 652.22
  A 0.32 0.31 77.3 0 1 531.81 652.54
  C 528.80 666.73 508.69 679.31 496.66 685.15
  C 457.03 704.38 412.15 710.65 368.61 714.84
  Q 323.14 719.22 277.44 720.00
  Z"
/>
</g>
</svg>
